;FLAVOR:Marlin
;TIME:24316
;Filament used: 15.5669m
;Layer height: 0.13125
;Generated with Cura_SteamEngine 3.3.1
M190 S65
M104 S205
M109 S205
M82 ;absolute extrusion mode
G21;(metric values)
G90;(absolute positioning)
M82;(set extruder to absolute mode)
M107;(start with the fan off)
G28;(Home the printer)
G92 E0;(Reset the extruder to 0)
G0 Z5 E5 F500;(Move up and prime the nozzle)
G0 X-1 Z0;(Move outside the printable area)
G1 Y60 E8 F500;(Draw a priming/wiping line to the rear)
G1 X-1;(Move a little closer to the print area)
G1 Y10 E16 F500;(draw more priming/wiping)
G1 E15 F250;(Small retract)
G92 E0;(Zero the extruder)
G92 E0
G1 F2400 E-2.5
;LAYER_COUNT:152
;LAYER:0
M107
G0 F4320 X8.547 Y51.37 Z0.262
;TYPE:SUPPORT
G1 F2400 E0
G1 F1800 X11.579 Y51.37 E0.11559
G1 X11.579 Y76.37 E1.0687
G1 X8.547 Y76.37 E1.1843
G1 X8.429 Y76.252 E1.19066
G1 X8.429 Y52.019 E2.11453
G0 F1620 X8.429 Y51.488
G0 X8.547 Y51.37
G0 F4320 X9.332 Y51.51
G1 F2400 E2.1411
G1 F1800 X9.332 Y76.23 E3.08354
G0 F4320 X8.568 Y74.656
G1 F1800 X11.438 Y74.656 E3.19295
G0 F4320 X11.438 Y72.323
G1 F1800 X8.568 Y72.323 E3.30237
G0 F4320 X8.568 Y69.99
G1 F1800 X11.438 Y69.99 E3.41179
G0 F4320 X11.438 Y67.657
G1 F1800 X8.568 Y67.657 E3.52121
G0 F4320 X8.568 Y65.324
G1 F1800 X11.438 Y65.324 E3.63062
G0 F4320 X11.438 Y62.991
G1 F1800 X8.568 Y62.991 E3.74004
G0 F4320 X8.568 Y60.658
G1 F1800 X11.438 Y60.658 E3.84946
G0 F4320 X11.438 Y58.325
G1 F1800 X8.568 Y58.325 E3.95887
G0 F4320 X8.568 Y55.992
G1 F1800 X11.438 Y55.992 E4.06829
G0 F4320 X11.438 Y53.659
G1 F1800 X8.568 Y53.659 E4.17771
G1 F2400 E1.67771
G0 F4320 X11.826 Y55.147
G0 X11.865 Y55.165
G0 X25.969 Y61.609
G0 X26.009 Y61.627
G0 X26.234 Y61.73
G1 F2400 E4.17771
G1 F1800 X26.665 Y61.117 E4.20628
G1 X27.177 Y60.605 E4.23388
G1 X27.787 Y60.177 E4.26229
G1 X28.465 Y59.86 E4.29083
G1 X29.184 Y59.665 E4.31923
G1 X29.932 Y59.597 E4.34786
G1 X30.677 Y59.667 E4.37639
G1 X31.399 Y59.862 E4.4049
G1 X32.088 Y60.188 E4.43396
G1 X32.676 Y60.6 E4.46133
G1 X33.199 Y61.123 E4.48953
G1 X33.623 Y61.732 E4.51782
G1 X33.945 Y62.419 E4.54675
G1 X34.128 Y63.115 E4.57418
G1 X34.202 Y63.865 E4.60292
G1 X34.135 Y64.606 E4.63128
G1 X33.949 Y65.313 E4.65915
G1 X33.621 Y66.02 E4.68887
G1 X33.215 Y66.601 E4.71589
G1 X32.671 Y67.145 E4.74522
G1 X32.068 Y67.564 E4.77321
G1 X31.385 Y67.884 E4.80197
G1 X30.663 Y68.078 E4.83047
G1 X30.001 Y68.137 E4.85581
G1 X29.196 Y68.077 E4.88659
G1 X28.996 Y68.025 E4.89446
G1 X28.925 Y67.992 E4.89745
G1 X28.719 Y67.951 E4.90546
G1 X28.457 Y67.878 E4.91583
G1 X27.767 Y67.547 E4.945
G1 X27.192 Y67.15 E4.97164
G1 X26.644 Y66.601 E5.00121
G1 X26.234 Y66.014 E5.02851
G1 X25.913 Y65.324 E5.05752
G1 X25.723 Y64.603 E5.08595
G1 X25.663 Y63.934 E5.11156
G1 X25.68 Y63.618 E5.12362
G1 X25.732 Y63.091 E5.14381
G1 X25.928 Y62.385 E5.17175
G1 X25.939 Y62.362 E5.17272
G0 F1620 X26.234 Y61.73
G0 F4320 X25.905 Y62.991
G1 F2400 E5.19929
G1 F1800 X33.95 Y62.991 E5.506
G0 F4320 X33.788 Y65.324
G1 F1800 X26.066 Y65.324 E5.8004
G0 F4320 X27.996 Y67.5
G1 F1800 X27.996 Y60.234 E6.07741
G0 F4320 X27.345 Y60.658
G1 F1800 X32.516 Y60.658 E6.27455
G0 F4320 X32.662 Y60.784
G1 F1800 X32.662 Y66.956 E6.50986
G0 F4320 X31.538 Y67.657
G1 F1800 X28.319 Y67.657 E6.63258
G0 F4320 X30.329 Y67.968
G1 F1800 X30.329 Y59.775 E6.94493
G1 F2400 E4.44493
G0 F4320 X32.094 Y59.911
G0 X32.138 Y59.913
G0 X80.388 Y63.613
G0 X80.432 Y63.615
G0 X80.677 Y63.636
G1 F2400 E6.94493
G1 F1800 X80.713 Y63.227 E6.96058
G1 X80.732 Y63.091 E6.96582
G1 X80.928 Y62.386 E6.99372
G1 X81.236 Y61.728 E7.02142
G1 X81.672 Y61.11 E7.05025
G1 X82.189 Y60.593 E7.07812
G1 X82.782 Y60.178 E7.10572
G1 X83.453 Y59.864 E7.13396
G1 X84.198 Y59.665 E7.16336
G1 X84.927 Y59.597 E7.19127
G1 X85.67 Y59.665 E7.21972
G1 X86.401 Y59.861 E7.24857
G1 X87.059 Y60.172 E7.27632
G1 X87.685 Y60.609 E7.30542
G1 X88.191 Y61.115 E7.33271
G1 X88.599 Y61.701 E7.35993
G1 X88.933 Y62.39 E7.38912
G1 X89.138 Y63.145 E7.41895
G1 X89.2 Y63.833 E7.44528
G1 X89.124 Y64.65 E7.47656
G1 X88.948 Y65.318 E7.5029
G1 X88.654 Y65.95 E7.52947
G1 X88.626 Y66.01 E7.532
G1 X88.208 Y66.609 E7.55985
G1 X87.684 Y67.132 E7.58807
G1 X87.069 Y67.561 E7.61666
G1 X86.386 Y67.885 E7.64548
G1 X85.667 Y68.078 E7.67386
G1 X84.927 Y68.144 E7.70218
G1 X84.217 Y68.08 E7.72936
G1 X83.469 Y67.884 E7.75884
G1 X82.778 Y67.556 E7.788
G1 X82.171 Y67.129 E7.8163
G1 X81.655 Y66.613 E7.84412
G1 X81.241 Y66.024 E7.87157
G1 X80.911 Y65.31 E7.90155
G1 X80.727 Y64.614 E7.929
G1 X80.7 Y64.331 E7.93984
G0 F1620 X80.66 Y63.89
G0 X80.677 Y63.636
G0 F4320 X80.906 Y62.991
G1 F2400 E7.96641
G1 F1800 X88.952 Y62.991 E8.27316
G0 F4320 X88.654 Y62.135
G1 F1800 X88.654 Y65.617 E8.40591
G0 F4320 X88.79 Y65.324
G1 F1800 X81.072 Y65.324 E8.70015
G0 F4320 X81.655 Y66.369
G1 F1800 X81.655 Y61.376 E8.89051
G0 F4320 X82.338 Y60.658
G1 F1800 X87.514 Y60.658 E9.08784
G0 F4320 X86.321 Y59.985
G1 F1800 X86.321 Y67.758 E9.38418
G0 F4320 X86.539 Y67.657
G1 F1800 X83.316 Y67.657 E9.50706
G0 F4320 X83.988 Y67.875
G1 F1800 X83.988 Y59.865 E9.81243
G1 F2400 E7.31243
G0 F4320 X84.928 Y59.348
G0 X84.967 Y59.327
G0 X99.218 Y51.525
G0 X99.257 Y51.504
G0 X99.504 Y51.37
G1 F2400 E9.81243
G1 F1800 X108.536 Y51.37 E10.15677
G1 X108.654 Y51.488 E10.16314
G1 X108.654 Y76.252 E11.10725
G1 X108.536 Y76.37 E11.11361
G1 X99.504 Y76.37 E11.45795
G1 X99.504 Y52.067 E12.38449
G0 F1620 X99.504 Y51.37
G0 F4320 X100.319 Y51.51
G1 F2400 E12.41106
G1 F1800 X100.319 Y76.23 E13.3535
G0 F4320 X99.644 Y74.656
G1 F1800 X108.514 Y74.656 E13.69166
G0 F4320 X107.318 Y76.23
G1 F1800 X107.318 Y51.51 E14.6341
G0 F4320 X104.985 Y51.51
G1 F1800 X104.985 Y76.23 E15.57653
G0 F4320 X102.652 Y76.23
G1 F1800 X102.652 Y51.51 E16.51897
G0 F4320 X99.644 Y53.659
G1 F1800 X108.514 Y53.659 E16.85713
G0 F4320 X108.514 Y55.992
G1 F1800 X99.644 Y55.992 E17.1953
G0 F4320 X99.644 Y58.325
G1 F1800 X108.514 Y58.325 E17.53346
G0 F4320 X108.514 Y60.658
G1 F1800 X99.644 Y60.658 E17.87162
G0 F4320 X99.644 Y62.991
G1 F1800 X108.514 Y62.991 E18.20979
G0 F4320 X108.514 Y65.324
G1 F1800 X99.644 Y65.324 E18.54795
G0 F4320 X99.644 Y67.657
G1 F1800 X108.514 Y67.657 E18.88611
G0 F4320 X108.514 Y69.99
G1 F1800 X99.644 Y69.99 E19.22428
G0 F4320 X99.644 Y72.323
G1 F1800 X108.514 Y72.323 E19.56244
G1 F2400 E17.06244
G0 F4320 X99.256 Y67.653
G0 X99.217 Y67.634
G0 X89.292 Y62.628
G0 X89.253 Y62.609
G0 X83.397 Y59.656
G0 X82.875 Y58.228
;TYPE:WALL-INNER
G1 F2400 E19.56244
G1 F1800 X81.928 Y58.672 E19.60232
G1 X81.07 Y59.271 E19.64221
G1 X80.33 Y60.011 E19.68211
G1 X79.73 Y60.869 E19.72202
G1 X79.287 Y61.817 E19.76192
G1 X79.017 Y62.827 E19.80178
G1 X78.926 Y63.87 E19.84169
G1 X79.017 Y64.913 E19.88161
G1 X79.287 Y65.924 E19.9215
G1 X79.73 Y66.872 E19.96139
G1 X80.33 Y67.73 E20.00131
G1 X81.07 Y68.469 E20.04118
G1 X81.928 Y69.069 E20.08109
G1 X82.875 Y69.512 E20.12095
G1 X83.886 Y69.783 E20.16086
G1 X84.929 Y69.873 E20.20077
G1 X85.972 Y69.783 E20.24068
G1 X86.983 Y69.512 E20.28059
G1 X87.931 Y69.069 E20.32048
G1 X88.788 Y68.469 E20.36036
G1 X89.528 Y67.73 E20.40023
G1 X90.128 Y66.872 E20.44015
G1 X90.571 Y65.924 E20.48004
G1 X90.841 Y64.913 E20.51994
G1 X90.932 Y63.87 E20.55985
G1 X90.841 Y62.827 E20.59977
G1 X90.571 Y61.817 E20.63963
G1 X90.128 Y60.869 E20.67952
G1 X89.528 Y60.011 E20.71943
G1 X88.788 Y59.271 E20.75933
G1 X87.931 Y58.672 E20.79919
G1 X86.983 Y58.228 E20.8391
G1 X85.972 Y57.958 E20.879
G1 X84.929 Y57.867 E20.91891
G1 X83.886 Y57.958 E20.95883
G1 X83.548 Y58.049 E20.97217
G0 F1620 X82.875 Y58.228
G1 F2400 E18.47217
G0 F4320 X83.397 Y59.656
G0 X83.31 Y59.656
G0 X83.266 Y59.656
G0 X31.594 Y59.656
G0 X31.55 Y59.656
G0 X28.397 Y59.656
G0 X27.875 Y58.228
G1 F2400 E20.99875
G1 F1800 X26.928 Y58.672 E21.03862
G1 X26.07 Y59.271 E21.07851
G1 X25.33 Y60.011 E21.11841
G1 X24.73 Y60.869 E21.15833
G1 X24.287 Y61.817 E21.19822
G1 X24.017 Y62.827 E21.23808
G1 X23.926 Y63.87 E21.27799
G1 X24.017 Y64.913 E21.31791
G1 X24.287 Y65.924 E21.3578
G1 X24.73 Y66.872 E21.3977
G1 X25.33 Y67.73 E21.43761
G1 X26.07 Y68.469 E21.47748
G1 X26.928 Y69.069 E21.5174
G1 X27.875 Y69.512 E21.55726
G1 X28.886 Y69.783 E21.59716
G1 X29.929 Y69.873 E21.63707
G1 X30.972 Y69.783 E21.67699
G1 X31.983 Y69.512 E21.71689
G1 X32.931 Y69.069 E21.75678
G1 X33.788 Y68.469 E21.79667
G1 X34.528 Y67.73 E21.83654
G1 X35.129 Y66.872 E21.87648
G1 X35.571 Y65.924 E21.91635
G1 X35.841 Y64.913 E21.95625
G1 X35.932 Y63.87 E21.99616
G1 X35.841 Y62.827 E22.03608
G1 X35.571 Y61.817 E22.07594
G1 X35.129 Y60.869 E22.11581
G1 X34.528 Y60.011 E22.15575
G1 X33.788 Y59.271 E22.19565
G1 X32.931 Y58.672 E22.23551
G1 X31.983 Y58.228 E22.27542
G1 X30.972 Y57.958 E22.31531
G1 X29.929 Y57.867 E22.35523
G1 X28.886 Y57.958 E22.39514
G1 X28.548 Y58.049 E22.40849
G0 F1620 X27.875 Y58.228
G1 F2400 E19.90849
G0 F4320 X28.397 Y59.656
G0 X28.38 Y59.623
G0 X28.361 Y59.584
G0 X13.582 Y30.275
G0 X13.563 Y30.236
G0 X13.544 Y30.201
G0 X13.485 Y31.715
G1 F2400 E22.43506
G1 F1800 X97.779 Y35.132 E25.65136
G1 X97.779 Y92.609 E27.84264
G1 X13.485 Y96.026 E31.05894
G1 X13.304 Y96.033 E31.06585
G1 X13.304 Y95.852 E31.07027
G1 X13.304 Y95.851 E31.07031
G1 X13.304 Y31.89 E33.50878
G1 X13.304 Y31.889 E33.50882
G1 X13.304 Y31.708 E33.51572
G1 X13.485 Y31.715 E33.52015
G0 F4320 X13.135 Y31.35
G1 F1800 X98.129 Y34.796 E36.76316
G1 X98.129 Y92.945 E38.98005
G1 X13.135 Y96.391 E42.22306
G1 X12.954 Y96.398 E42.22997
G1 X12.954 Y96.217 E42.23439
G1 X12.954 Y96.216 E42.23443
G1 X12.954 Y31.525 E44.70074
G1 X12.954 Y31.524 E44.70078
G1 X12.954 Y31.343 E44.70768
G1 X13.135 Y31.35 E44.7121
G1 F2400 E42.2121
G0 F4320 X13.181 Y30.186
G0 X13.2 Y30.222
G0 X13.22 Y30.261
G0 X28.361 Y59.585
G0 X28.397 Y59.656
G0 X27.995 Y58.558
G1 F2400 E44.7121
G1 F1800 X27.104 Y58.976 E44.74962
G1 X26.296 Y59.54 E44.78719
G1 X25.599 Y60.237 E44.82477
G1 X25.034 Y61.045 E44.86236
G1 X24.617 Y61.937 E44.8999
G1 X24.363 Y62.888 E44.93743
G1 X24.277 Y63.87 E44.97501
G1 X24.363 Y64.852 E45.01259
G1 X24.617 Y65.804 E45.05015
G1 X25.034 Y66.696 E45.08769
G1 X25.599 Y67.504 E45.12528
G1 X26.296 Y68.2 E45.16283
G1 X27.104 Y68.765 E45.20042
G1 X27.995 Y69.182 E45.23793
G1 X28.947 Y69.437 E45.2755
G1 X29.929 Y69.522 E45.31308
G1 X30.911 Y69.437 E45.35066
G1 X31.863 Y69.182 E45.38823
G1 X32.755 Y68.765 E45.42577
G1 X33.562 Y68.2 E45.46333
G1 X34.259 Y67.504 E45.50088
G1 X34.825 Y66.696 E45.53849
G1 X35.241 Y65.804 E45.57601
G1 X35.495 Y64.852 E45.61358
G1 X35.581 Y63.87 E45.65116
G1 X35.495 Y62.888 E45.68874
G1 X35.241 Y61.937 E45.72627
G1 X34.825 Y61.045 E45.76379
G1 X34.259 Y60.237 E45.8014
G1 X33.562 Y59.54 E45.83898
G1 X32.755 Y58.976 E45.87652
G1 X31.863 Y58.558 E45.91407
G1 X30.911 Y58.304 E45.95164
G1 X29.929 Y58.218 E45.98922
G1 X28.947 Y58.304 E46.0268
G1 X28.668 Y58.379 E46.03781
G0 F1620 X27.995 Y58.558
G1 F2400 E43.53781
G0 F4320 X28.397 Y59.656
G0 X31.55 Y59.656
G0 X31.594 Y59.656
G0 X83.266 Y59.656
G0 X83.31 Y59.656
G0 X83.397 Y59.656
G0 X82.995 Y58.558
G1 F2400 E46.06439
G1 F1800 X82.104 Y58.976 E46.10191
G1 X81.296 Y59.54 E46.13948
G1 X80.599 Y60.237 E46.17705
G1 X80.034 Y61.045 E46.21464
G1 X79.617 Y61.937 E46.25218
G1 X79.363 Y62.888 E46.28971
G1 X79.277 Y63.87 E46.32729
G1 X79.363 Y64.852 E46.36487
G1 X79.617 Y65.804 E46.40244
G1 X80.034 Y66.696 E46.43998
G1 X80.599 Y67.504 E46.47757
G1 X81.296 Y68.2 E46.51512
G1 X82.104 Y68.765 E46.55271
G1 X82.995 Y69.182 E46.59021
G1 X83.947 Y69.437 E46.62779
G1 X84.929 Y69.522 E46.66536
G1 X85.911 Y69.437 E46.70294
G1 X86.863 Y69.182 E46.74052
G1 X87.755 Y68.765 E46.77806
G1 X88.562 Y68.2 E46.81561
G1 X89.259 Y67.504 E46.85317
G1 X89.824 Y66.696 E46.89075
G1 X90.241 Y65.804 E46.92829
G1 X90.495 Y64.852 E46.96586
G1 X90.581 Y63.87 E47.00344
G1 X90.495 Y62.888 E47.04102
G1 X90.241 Y61.937 E47.07855
G1 X89.824 Y61.045 E47.11609
G1 X89.259 Y60.237 E47.15368
G1 X88.562 Y59.54 E47.19126
G1 X87.755 Y58.976 E47.22879
G1 X86.863 Y58.558 E47.26635
G1 X85.911 Y58.304 E47.30391
G1 X84.929 Y58.218 E47.34149
G1 X83.947 Y58.304 E47.37907
G1 X83.668 Y58.379 E47.39009
G0 F1620 X82.995 Y58.558
G1 F2400 E44.89009
G0 F4320 X83.397 Y59.656
G0 X84.151 Y68.286
G0 X84.004 Y69.116
;TYPE:WALL-OUTER
G1 F2400 E47.41666
G1 F1800 X84.929 Y69.196 E47.45206
G1 X85.854 Y69.116 E47.48745
G1 X86.751 Y68.875 E47.52286
G1 X87.592 Y68.483 E47.55824
G1 X88.352 Y67.95 E47.59363
G1 X89.009 Y67.294 E47.62902
G1 X89.541 Y66.533 E47.66442
G1 X89.934 Y65.692 E47.69981
G1 X90.174 Y64.795 E47.73522
G1 X90.255 Y63.87 E47.77062
G1 X90.174 Y62.945 E47.80602
G1 X89.934 Y62.049 E47.84138
G1 X89.541 Y61.208 E47.87677
G1 X89.009 Y60.447 E47.91217
G1 X88.352 Y59.79 E47.94759
G1 X87.592 Y59.258 E47.98296
G1 X86.751 Y58.865 E48.01835
G1 X85.854 Y58.625 E48.05375
G1 X84.929 Y58.544 E48.08915
G1 X84.004 Y58.625 E48.12455
G1 X83.107 Y58.865 E48.15995
G1 X82.267 Y59.258 E48.19531
G1 X81.506 Y59.79 E48.23071
G1 X80.849 Y60.447 E48.26613
G1 X80.317 Y61.208 E48.30153
G1 X79.924 Y62.049 E48.33692
G1 X79.684 Y62.945 E48.37228
G1 X79.603 Y63.87 E48.40768
G1 X79.684 Y64.795 E48.44308
G1 X79.924 Y65.692 E48.47848
G1 X80.317 Y66.533 E48.51387
G1 X80.849 Y67.294 E48.54927
G1 X81.506 Y67.95 E48.58467
G1 X82.267 Y68.483 E48.62009
G1 X83.107 Y68.875 E48.65543
G1 X83.331 Y68.935 E48.66427
G0 F1620 X84.004 Y69.116
G0 F4320 X84.203 Y69.133
G1 F2400 E46.16427
G0 F4320 X84.151 Y68.286
G0 X84.003 Y68.286
G0 X83.959 Y68.286
G0 X30.898 Y68.286
G0 X30.854 Y68.286
G0 X29.151 Y68.286
G0 X29.004 Y69.116
G1 F2400 E48.69084
G1 F1800 X29.929 Y69.196 E48.72624
G1 X30.854 Y69.116 E48.76164
G1 X31.751 Y68.875 E48.79705
G1 X32.592 Y68.483 E48.83242
G1 X33.352 Y67.95 E48.86781
G1 X34.009 Y67.294 E48.90321
G1 X34.542 Y66.533 E48.93863
G1 X34.934 Y65.692 E48.974
G1 X35.174 Y64.795 E49.00941
G1 X35.255 Y63.87 E49.04481
G1 X35.174 Y62.945 E49.08021
G1 X34.934 Y62.049 E49.11557
G1 X34.542 Y61.208 E49.15094
G1 X34.009 Y60.447 E49.18636
G1 X33.352 Y59.79 E49.22179
G1 X32.592 Y59.258 E49.25716
G1 X31.751 Y58.865 E49.29255
G1 X30.854 Y58.625 E49.32795
G1 X29.929 Y58.544 E49.36335
G1 X29.004 Y58.625 E49.39875
G1 X28.107 Y58.865 E49.43415
G1 X27.267 Y59.258 E49.4695
G1 X26.506 Y59.79 E49.5049
G1 X25.849 Y60.447 E49.54033
G1 X25.317 Y61.208 E49.57572
G1 X24.924 Y62.049 E49.61112
G1 X24.684 Y62.945 E49.64648
G1 X24.603 Y63.87 E49.68188
G1 X24.684 Y64.795 E49.71728
G1 X24.924 Y65.692 E49.75268
G1 X25.317 Y66.533 E49.78807
G1 X25.849 Y67.294 E49.82347
G1 X26.506 Y67.95 E49.85887
G1 X27.267 Y68.483 E49.89429
G1 X28.107 Y68.875 E49.92963
G1 X28.331 Y68.935 E49.93847
G0 F1620 X29.004 Y69.116
G0 F4320 X29.203 Y69.133
G1 F2400 E47.43847
G0 F4320 X29.151 Y68.286
G0 X26.187 Y61.361
G0 X26.171 Y61.32
G0 X12.875 Y30.248
G0 X12.858 Y30.208
G0 X12.842 Y30.173
G0 X12.81 Y31.011
G1 F2400 E49.96504
G1 F1800 X98.454 Y34.484 E53.23285
G1 X98.454 Y93.257 E55.47354
G1 X12.81 Y96.73 E58.74135
G1 X12.629 Y96.737 E58.74826
G1 X12.629 Y96.556 E58.75268
G1 X12.629 Y96.555 E58.75272
G1 X12.629 Y31.186 E61.24487
G1 X12.629 Y31.185 E61.24491
G1 X12.629 Y31.004 E61.25181
G1 X12.81 Y31.011 E61.25624
G0 F4320 X13.009 Y31.019
G0 X13.644 Y32.062
;TYPE:SKIN
G1 F1800 X97.439 Y35.459 E64.4535
G1 X97.439 Y92.282 E66.61984
G1 X13.644 Y95.679 E69.8171
G1 X13.644 Y32.759 E72.21589
G0 F1620 X13.644 Y32.062
G1 F2400 E69.71589
G0 F4320 X11.789 Y32.062
G0 X11.827 Y32.126
G0 X11.848 Y32.165
G0 X27.644 Y59.921
G0 X27.666 Y59.96
G0 X27.683 Y59.991
G0 X26.757 Y58.377
G1 F2400 E72.24247
G1 F1800 X25.851 Y59.009 E72.28458
G1 X25.068 Y59.792 E72.3268
G1 X24.435 Y60.698 E72.36893
G1 X23.966 Y61.7 E72.41111
G1 X23.681 Y62.768 E72.45325
G1 X23.584 Y63.87 E72.49543
