;FLAVOR:Marlin
;TIME:16681
;Filament used: 9.49921m
;Layer height: 0.13125
;Generated with Cura_SteamEngine 3.3.1
M190 S65
M104 S205
M109 S205
M82 ;absolute extrusion mode
G21;(metric values)
G90;(absolute positioning)
M82;(set extruder to absolute mode)
M107;(start with the fan off)
G28;(Home the printer)
G92 E0;(Reset the extruder to 0)
G0 Z5 E5 F500;(Move up and prime the nozzle)
G0 X-1 Z0;(Move outside the printable area)
G1 Y60 E8 F500;(Draw a priming/wiping line to the rear)
G1 X-1;(Move a little closer to the print area)
G1 Y10 E16 F500;(draw more priming/wiping)
G1 E15 F250;(Small retract)
G92 E0;(Zero the extruder)
G92 E0
G1 F2400 E-2.5
;LAYER_COUNT:152
;LAYER:0
M107
G0 F4320 X57.212 Y25.756 Z0.262
;TYPE:WALL-INNER
G1 F2400 E0
G1 F1800 X101.039 Y27.532 E1.67225
G1 X101.039 Y92 E4.13006
G1 X57.212 Y93.776 E5.80231
G1 X53.538 Y93.878 E5.94243
G1 X49.92 Y93.592 E6.08079
G1 X46.351 Y92.924 E6.21922
G1 X42.87 Y91.877 E6.35781
G1 X39.502 Y90.46 E6.49711
G1 X36.348 Y88.715 E6.63453
G1 X33.355 Y86.616 E6.7739
G1 X30.628 Y84.233 E6.91197
G1 X28.152 Y81.555 E7.05102
G1 X25.981 Y78.633 E7.1898
G1 X24.142 Y75.516 E7.32778
G1 X22.636 Y72.2 E7.46662
G1 X21.49 Y68.741 E7.60555
G1 X20.725 Y65.199 E7.7437
G1 X20.338 Y61.584 E7.8823
G1 X20.338 Y57.948 E8.02092
G1 X20.725 Y54.333 E8.15953
G1 X21.49 Y50.791 E8.29768
G1 X22.636 Y47.332 E8.4366
G1 X24.142 Y44.016 E8.57545
G1 X25.981 Y40.899 E8.71343
G1 X28.152 Y37.977 E8.85221
G1 X30.628 Y35.299 E8.99126
G1 X33.355 Y32.916 E9.12932
G1 X36.348 Y30.817 E9.26869
G1 X39.502 Y29.072 E9.40611
G1 X42.87 Y27.655 E9.54542
G1 X46.351 Y26.608 E9.684
G1 X49.92 Y25.94 E9.82243
G1 X53.538 Y25.653 E9.9608
G1 X56.516 Y25.737 E10.07438
G0 F1620 X57.212 Y25.756
G1 F2400 E7.57438
G0 F4320 X57.271 Y24.242
G0 X57.264 Y24.277
G0 X57.259 Y24.321
G0 X53.378 Y52.253
G0 X53.373 Y52.297
G0 X53.306 Y52.777
G0 X51.828 Y53.24
G1 F2400 E10.10095
G1 F1800 X51.951 Y53.682 E10.11844
G1 X52.148 Y54.096 E10.13592
G1 X52.412 Y54.469 E10.15334
G1 X52.739 Y54.791 E10.17084
G1 X53.117 Y55.051 E10.18833
G1 X53.533 Y55.24 E10.20575
G1 X53.974 Y55.356 E10.22314
G1 X54.432 Y55.393 E10.24065
G1 X54.888 Y55.349 E10.25812
G1 X55.328 Y55.228 E10.27552
G1 X55.744 Y55.031 E10.29306
G1 X56.114 Y54.768 E10.31037
G1 X56.437 Y54.441 E10.32789
G1 X56.699 Y54.063 E10.34543
G1 X56.888 Y53.646 E10.36288
G1 X57.004 Y53.206 E10.38023
G1 X57.041 Y52.748 E10.39775
G1 X56.998 Y52.292 E10.41521
G1 X56.876 Y51.849 E10.43273
G1 X56.679 Y51.436 E10.45017
G1 X56.416 Y51.064 E10.46754
G1 X56.088 Y50.742 E10.48507
G1 X55.711 Y50.48 E10.50257
G1 X55.294 Y50.291 E10.52002
G1 X54.851 Y50.175 E10.53748
G1 X54.397 Y50.139 E10.55484
G1 X53.94 Y50.18 E10.57234
G1 X53.497 Y50.303 E10.58987
G1 X53.084 Y50.5 E10.60731
G1 X52.712 Y50.763 E10.62468
G1 X52.389 Y51.091 E10.64223
G1 X52.128 Y51.469 E10.65974
G1 X51.939 Y51.885 E10.67716
G1 X51.823 Y52.328 E10.69462
G1 X51.805 Y52.545 E10.70292
G0 F1620 X51.787 Y52.783
G0 X51.828 Y53.24
G1 F2400 E8.20292
G0 F4320 X53.377 Y53.154
G0 X53.395 Y53.28
G0 X53.4 Y53.324
G0 X53.983 Y57.367
G0 X53.988 Y57.411
G0 X53.995 Y57.446
G0 X53.715 Y55.951
G1 F2400 E10.72949
G1 F1800 X53.061 Y56.133 E10.75538
G1 X52.458 Y56.419 E10.78082
G1 X51.902 Y56.812 E10.80678
G1 X51.437 Y57.279 E10.8319
G1 X51.041 Y57.852 E10.85846
G1 X50.762 Y58.466 E10.88417
G1 X50.591 Y59.119 E10.9099
G1 X50.538 Y59.791 E10.9356
G1 X50.599 Y60.465 E10.9614
G1 X50.78 Y61.117 E10.9872
G1 X51.066 Y61.722 E11.01271
G1 X51.46 Y62.278 E11.03869
G1 X51.942 Y62.753 E11.06449
G1 X52.5 Y63.138 E11.09034
G1 X53.113 Y63.417 E11.11601
G1 X53.765 Y63.588 E11.14171
G1 X54.44 Y63.642 E11.16753
G1 X55.113 Y63.579 E11.1933
G1 X55.765 Y63.399 E11.21909
G1 X56.376 Y63.109 E11.24487
G1 X56.926 Y62.718 E11.2706
G1 X57.4 Y62.237 E11.29634
G1 X57.786 Y61.68 E11.32218
G1 X58.065 Y61.066 E11.34789
G1 X58.236 Y60.415 E11.37355
G1 X58.29 Y59.74 E11.39937
G1 X58.227 Y59.067 E11.42514
G1 X58.047 Y58.415 E11.45092
G1 X57.757 Y57.804 E11.47671
G1 X57.367 Y57.255 E11.50238
G1 X56.9 Y56.79 E11.52751
G1 X56.329 Y56.394 E11.554
G1 X55.716 Y56.115 E11.57968
G1 X55.063 Y55.943 E11.60542
G1 X54.409 Y55.891 E11.63043
G0 F1620 X54.389 Y55.89
G0 X53.715 Y55.951
G1 F2400 E9.13043
G0 F4320 X53.995 Y57.446
G0 X56.357 Y58.384
G0 X56.398 Y58.4
G0 X60.243 Y59.927
G0 X60.284 Y59.943
G0 X60.322 Y59.959
G0 X58.828 Y60.24
G1 F2400 E11.65701
G1 F1800 X58.951 Y60.682 E11.6745
G1 X59.148 Y61.096 E11.69198
G1 X59.412 Y61.469 E11.7094
G1 X59.739 Y61.791 E11.7269
G1 X60.117 Y62.051 E11.74439
G1 X60.533 Y62.24 E11.76181
G1 X60.974 Y62.356 E11.77919
G1 X61.432 Y62.393 E11.79671
G1 X61.888 Y62.349 E11.81417
G1 X62.328 Y62.228 E11.83157
G1 X62.744 Y62.031 E11.84912
G1 X63.114 Y61.768 E11.86643
G1 X63.437 Y61.441 E11.88395
G1 X63.699 Y61.063 E11.90148
G1 X63.888 Y60.646 E11.91894
G1 X64.004 Y60.206 E11.93629
G1 X64.041 Y59.748 E11.9538
G1 X63.998 Y59.292 E11.97127
G1 X63.876 Y58.849 E11.98878
G1 X63.679 Y58.436 E12.00623
G1 X63.416 Y58.064 E12.0236
G1 X63.088 Y57.742 E12.04112
G1 X62.711 Y57.48 E12.05862
G1 X62.294 Y57.291 E12.07608
G1 X61.851 Y57.175 E12.09354
G1 X61.397 Y57.139 E12.1109
G1 X60.94 Y57.18 E12.12839
G1 X60.497 Y57.303 E12.14592
G1 X60.084 Y57.5 E12.16337
G1 X59.712 Y57.763 E12.18073
G1 X59.389 Y58.091 E12.19828
G1 X59.128 Y58.469 E12.2158
G1 X58.939 Y58.885 E12.23322
G1 X58.823 Y59.328 E12.25068
G1 X58.805 Y59.545 E12.25898
G0 F1620 X58.787 Y59.783
G0 X58.828 Y60.24
G1 F2400 E9.75898
G0 F4320 X60.322 Y59.959
G0 X60.292 Y59.987
G0 X60.261 Y60.018
G0 X54.665 Y65.614
G0 X54.634 Y65.645
G0 X53.322 Y66.959
G0 X51.828 Y67.24
G1 F2400 E12.28555
G1 F1800 X51.951 Y67.682 E12.30304
G1 X52.148 Y68.096 E12.32052
G1 X52.412 Y68.469 E12.33794
G1 X52.739 Y68.791 E12.35544
G1 X53.117 Y69.051 E12.37293
G1 X53.533 Y69.24 E12.39035
G1 X53.974 Y69.356 E12.40773
G1 X54.432 Y69.393 E12.42525
G1 X54.888 Y69.349 E12.44272
G1 X55.328 Y69.228 E12.46011
G1 X55.744 Y69.031 E12.47766
G1 X56.114 Y68.768 E12.49497
G1 X56.437 Y68.441 E12.51249
G1 X56.699 Y68.063 E12.53003
G1 X56.888 Y67.646 E12.54748
G1 X57.004 Y67.206 E12.56483
G1 X57.041 Y66.748 E12.58235
G1 X56.998 Y66.292 E12.59981
G1 X56.876 Y65.849 E12.61733
G1 X56.679 Y65.436 E12.63477
G1 X56.416 Y65.064 E12.65214
G1 X56.088 Y64.742 E12.66966
G1 X55.711 Y64.48 E12.68717
G1 X55.294 Y64.291 E12.70462
G1 X54.851 Y64.175 E12.72208
G1 X54.397 Y64.139 E12.73944
G1 X53.94 Y64.18 E12.75694
G1 X53.497 Y64.303 E12.77446
G1 X53.084 Y64.5 E12.79191
G1 X52.712 Y64.763 E12.80928
G1 X52.389 Y65.091 E12.82683
G1 X52.128 Y65.469 E12.84434
G1 X51.939 Y65.885 E12.86176
G1 X51.823 Y66.328 E12.87922
G1 X51.805 Y66.545 E12.88752
G0 F1620 X51.787 Y66.783
G0 X51.828 Y67.24
G1 F2400 E10.38752
G0 F4320 X53.322 Y66.959
G0 X53.28 Y66.916
G0 X53.249 Y66.885
G0 X47.291 Y60.927
G0 X47.26 Y60.896
G0 X46.322 Y59.959
G0 X44.828 Y60.24
G1 F2400 E12.91409
G1 F1800 X44.951 Y60.682 E12.93158
G1 X45.148 Y61.096 E12.94906
G1 X45.412 Y61.469 E12.96649
G1 X45.739 Y61.791 E12.98398
G1 X46.117 Y62.051 E13.00147
G1 X46.533 Y62.24 E13.01889
G1 X46.974 Y62.356 E13.03628
G1 X47.432 Y62.393 E13.0538
G1 X47.888 Y62.349 E13.07126
G1 X48.328 Y62.228 E13.08866
G1 X48.744 Y62.031 E13.10621
G1 X49.114 Y61.768 E13.12351
G1 X49.437 Y61.441 E13.14104
G1 X49.699 Y61.063 E13.15857
G1 X49.888 Y60.646 E13.17602
G1 X50.004 Y60.206 E13.19337
G1 X50.041 Y59.748 E13.21089
G1 X49.998 Y59.292 E13.22835
G1 X49.876 Y58.849 E13.24587
G1 X49.679 Y58.436 E13.26332
G1 X49.416 Y58.064 E13.28068
G1 X49.088 Y57.742 E13.29821
G1 X48.711 Y57.48 E13.31571
G1 X48.294 Y57.291 E13.33316
G1 X47.851 Y57.175 E13.35062
G1 X47.397 Y57.139 E13.36799
G1 X46.94 Y57.18 E13.38548
G1 X46.497 Y57.303 E13.40301
G1 X46.084 Y57.5 E13.42045
G1 X45.712 Y57.763 E13.43782
G1 X45.389 Y58.091 E13.45537
G1 X45.128 Y58.469 E13.47288
G1 X44.939 Y58.885 E13.4903
G1 X44.823 Y59.328 E13.50776
G1 X44.805 Y59.545 E13.51606
G0 F1620 X44.787 Y59.783
G0 X44.828 Y60.24
G1 F2400 E11.01606
G0 F4320 X46.322 Y59.959
G0 X47.958 Y58.8
G0 X48.538 Y57.786
G1 F2400 E13.54264
G1 F1800 X48.176 Y57.622 E13.55779
G1 X47.792 Y57.521 E13.57293
G1 X47.399 Y57.49 E13.58795
G1 X47.003 Y57.526 E13.60311
G1 X46.62 Y57.632 E13.61826
G1 X46.262 Y57.803 E13.63339
G1 X45.94 Y58.031 E13.64843
G1 X45.66 Y58.315 E13.66364
G1 X45.434 Y58.642 E13.67879
G1 X45.27 Y59.003 E13.69391
G1 X45.169 Y59.387 E13.70905
G1 X45.138 Y59.781 E13.72411
G1 X45.174 Y60.177 E13.73927
G1 X45.28 Y60.559 E13.75439
G1 X45.451 Y60.918 E13.76955
G1 X45.68 Y61.241 E13.78464
G1 X45.963 Y61.52 E13.79979
G1 X46.29 Y61.745 E13.81492
G1 X46.651 Y61.909 E13.83004
G1 X47.033 Y62.01 E13.84511
G1 X47.429 Y62.042 E13.86025
G1 X47.824 Y62.004 E13.87538
G1 X48.206 Y61.899 E13.89048
G1 X48.566 Y61.728 E13.90568
G1 X48.887 Y61.5 E13.92069
G1 X49.167 Y61.217 E13.93587
G1 X49.393 Y60.89 E13.95102
G1 X49.557 Y60.528 E13.96617
G1 X49.658 Y60.147 E13.9812
G1 X49.69 Y59.751 E13.99635
G1 X49.652 Y59.355 E14.01151
G1 X49.547 Y58.972 E14.02665
G1 X49.376 Y58.614 E14.04178
G1 X49.148 Y58.292 E14.05682
G1 X49.078 Y58.223 E14.06057
G0 F1620 X48.864 Y58.012
G0 X48.538 Y57.786
G1 F2400 E11.56057
G0 F4320 X47.958 Y58.8
G0 X48.005 Y58.788
G0 X48.049 Y58.781
G0 X53.045 Y57.789
G0 X53.089 Y57.781
G0 X54.804 Y57.441
G0 X55.004 Y56.289
G1 F2400 E14.08714
G1 F1800 X54.391 Y56.241 E14.11058
G1 X53.778 Y56.297 E14.13405
G1 X53.184 Y56.462 E14.15755
G1 X52.635 Y56.722 E14.18071
G1 X52.129 Y57.08 E14.20434
G1 X51.707 Y57.504 E14.22715
G1 X51.347 Y58.025 E14.25129
G1 X51.093 Y58.584 E14.2747
G1 X50.937 Y59.178 E14.29812
G1 X50.889 Y59.789 E14.32148
G1 X50.945 Y60.402 E14.34495
G1 X51.109 Y60.995 E14.36841
G1 X51.369 Y61.544 E14.39156
G1 X51.728 Y62.05 E14.41522
G1 X52.166 Y62.482 E14.43867
G1 X52.673 Y62.832 E14.46216
G1 X53.231 Y63.086 E14.48553
G1 X53.824 Y63.242 E14.50891
G1 X54.437 Y63.291 E14.53235
G1 X55.05 Y63.233 E14.55583
G1 X55.643 Y63.07 E14.57928
G1 X56.198 Y62.806 E14.60271
G1 X56.698 Y62.45 E14.62611
G1 X57.13 Y62.013 E14.64953
G1 X57.48 Y61.507 E14.67299
G1 X57.734 Y60.948 E14.6964
G1 X57.89 Y60.356 E14.71974
G1 X57.939 Y59.743 E14.74318
G1 X57.881 Y59.13 E14.76666
G1 X57.718 Y58.537 E14.7901
G1 X57.454 Y57.982 E14.81354
G1 X57.099 Y57.482 E14.83691
G1 X56.675 Y57.06 E14.85972
G1 X56.155 Y56.7 E14.88383
G1 X55.673 Y56.48 E14.90403
G0 F1620 X55.598 Y56.446
G0 X55.004 Y56.289
G1 F2400 E12.40403
G0 F4320 X54.804 Y57.441
G0 X54.806 Y57.405
G0 X54.806 Y57.361
G0 X54.902 Y53.837
G0 X54.902 Y53.793
G0 X54.958 Y51.8
G0 X55.538 Y50.786
G1 F2400 E14.9306
G1 F1800 X55.176 Y50.622 E14.94576
G1 X54.792 Y50.521 E14.96089
G1 X54.399 Y50.49 E14.97592
G1 X54.003 Y50.526 E14.99108
G1 X53.62 Y50.632 E15.00623
G1 X53.262 Y50.803 E15.02136
G1 X52.94 Y51.031 E15.0364
G1 X52.66 Y51.315 E15.05161
G1 X52.434 Y51.642 E15.06676
G1 X52.27 Y52.003 E15.08188
G1 X52.169 Y52.387 E15.09701
G1 X52.138 Y52.781 E15.11208
G1 X52.174 Y53.177 E15.12724
G1 X52.28 Y53.559 E15.14235
G1 X52.451 Y53.918 E15.15751
G1 X52.68 Y54.241 E15.17261
G1 X52.963 Y54.52 E15.18776
G1 X53.29 Y54.745 E15.20289
G1 X53.651 Y54.909 E15.21801
G1 X54.033 Y55.01 E15.23307
G1 X54.429 Y55.042 E15.24822
G1 X54.824 Y55.004 E15.26335
G1 X55.206 Y54.899 E15.27845
G1 X55.566 Y54.728 E15.29365
G1 X55.887 Y54.5 E15.30866
G1 X56.167 Y54.217 E15.32384
G1 X56.393 Y53.89 E15.33899
G1 X56.557 Y53.528 E15.35414
G1 X56.658 Y53.147 E15.36917
G1 X56.69 Y52.751 E15.38431
G1 X56.652 Y52.355 E15.39948
G1 X56.547 Y51.972 E15.41462
G1 X56.376 Y51.614 E15.42975
G1 X56.148 Y51.292 E15.44479
G1 X56.078 Y51.223 E15.44854
G0 F1620 X55.864 Y51.012
G0 X55.538 Y50.786
G1 F2400 E12.94854
G0 F4320 X55.116 Y51.91
G0 X55.413 Y52.214
G0 X55.444 Y52.245
G0 X61.706 Y58.64
G0 X61.737 Y58.671
G0 X61.788 Y58.723
G0 X62.538 Y57.786
G1 F2400 E15.47511
G1 F1800 X62.176 Y57.622 E15.49026
G1 X61.792 Y57.521 E15.5054
G1 X61.399 Y57.49 E15.52043
G1 X61.003 Y57.526 E15.53559
G1 X60.62 Y57.632 E15.55074
G1 X60.262 Y57.803 E15.56586
G1 X59.94 Y58.031 E15.58091
G1 X59.66 Y58.315 E15.59611
G1 X59.434 Y58.642 E15.61126
G1 X59.27 Y59.003 E15.62638
G1 X59.169 Y59.387 E15.64152
G1 X59.138 Y59.781 E15.65659
G1 X59.174 Y60.177 E15.67175
G1 X59.28 Y60.559 E15.68686
G1 X59.451 Y60.918 E15.70202
G1 X59.68 Y61.241 E15.71711
G1 X59.963 Y61.52 E15.73227
G1 X60.29 Y61.745 E15.7474
G1 X60.651 Y61.909 E15.76251
G1 X61.033 Y62.01 E15.77758
G1 X61.429 Y62.042 E15.79273
G1 X61.824 Y62.004 E15.80785
G1 X62.206 Y61.899 E15.82296
G1 X62.566 Y61.728 E15.83815
G1 X62.887 Y61.5 E15.85316
G1 X63.167 Y61.217 E15.86834
G1 X63.393 Y60.89 E15.88349
G1 X63.557 Y60.528 E15.89865
G1 X63.658 Y60.147 E15.91367
G1 X63.69 Y59.751 E15.92882
G1 X63.652 Y59.355 E15.94399
G1 X63.547 Y58.972 E15.95913
G1 X63.376 Y58.614 E15.97425
G1 X63.148 Y58.292 E15.98929
G1 X63.078 Y58.223 E15.99304
G0 F1620 X62.864 Y58.012
G0 X62.538 Y57.786
G1 F2400 E13.49304
G0 F4320 X61.958 Y58.8
G0 X60.422 Y60.334
G0 X60.391 Y60.365
G0 X55.014 Y65.742
G0 X54.983 Y65.773
G0 X54.958 Y65.8
G0 X55.538 Y64.786
G1 F2400 E16.01961
G1 F1800 X55.176 Y64.622 E16.03477
G1 X54.792 Y64.521 E16.0499
G1 X54.399 Y64.49 E16.06493
G1 X54.003 Y64.526 E16.08009
G1 X53.62 Y64.632 E16.09524
G1 X53.262 Y64.803 E16.11037
G1 X52.94 Y65.031 E16.12541
G1 X52.66 Y65.315 E16.14061
G1 X52.434 Y65.642 E16.15577
G1 X52.27 Y66.003 E16.17089
G1 X52.169 Y66.387 E16.18602
G1 X52.138 Y66.781 E16.20109
G1 X52.174 Y67.177 E16.21625
G1 X52.28 Y67.559 E16.23136
G1 X52.451 Y67.918 E16.24652
G1 X52.68 Y68.241 E16.26162
G1 X52.963 Y68.52 E16.27677
G1 X53.29 Y68.745 E16.2919
G1 X53.651 Y68.909 E16.30702
G1 X54.033 Y69.01 E16.32208
G1 X54.429 Y69.042 E16.33723
G1 X54.824 Y69.004 E16.35236
G1 X55.206 Y68.899 E16.36746
G1 X55.566 Y68.728 E16.38266
G1 X55.887 Y68.5 E16.39767
G1 X56.167 Y68.217 E16.41285
G1 X56.393 Y67.89 E16.428
G1 X56.557 Y67.528 E16.44315
G1 X56.658 Y67.147 E16.45818
G1 X56.69 Y66.751 E16.47332
G1 X56.652 Y66.355 E16.48849
G1 X56.547 Y65.972 E16.50363
G1 X56.376 Y65.614 E16.51876
G1 X56.148 Y65.292 E16.5338
G1 X56.078 Y65.223 E16.53755
G0 F1620 X55.864 Y65.012
G0 X55.538 Y64.786
G1 F2400 E14.03755
G0 F4320 X54.958 Y65.8
G0 X54.96 Y65.762
G0 X54.961 Y65.718
G0 X55.164 Y62.072
G0 X55.238 Y61.973
G0 X55.573 Y57.714
G0 X55.416 Y57.558
G0 X57.265 Y24.32
G0 X57.267 Y24.276
G0 X57.271 Y24.242
G0 X57.226 Y25.406
G1 F2400 E16.56412
G1 F1800 X101.389 Y27.196 E18.24919
G1 X101.389 Y92.336 E20.73262
G1 X57.226 Y94.126 E22.41769
G1 X53.529 Y94.229 E22.55869
G1 X49.876 Y93.94 E22.69839
G1 X46.268 Y93.264 E22.83834
G1 X42.746 Y92.205 E22.97855
G1 X39.357 Y90.779 E23.11873
G1 X36.156 Y89.008 E23.2582
G1 X33.146 Y86.898 E23.39834
G1 X30.378 Y84.478 E23.53851
G1 X27.883 Y81.78 E23.67861
G1 X25.692 Y78.831 E23.81867
G1 X23.828 Y75.672 E23.95851
G1 X22.312 Y72.334 E24.09828
G1 X21.152 Y68.832 E24.23893
G1 X20.379 Y65.254 E24.37848
G1 X19.988 Y61.602 E24.51851
G1 X19.988 Y57.93 E24.6585
G1 X20.379 Y54.278 E24.79853
G1 X21.152 Y50.7 E24.93808
G1 X22.312 Y47.198 E25.07873
G1 X23.828 Y43.86 E25.2185
G1 X25.692 Y40.701 E25.35834
G1 X27.883 Y37.752 E25.4984
G1 X30.378 Y35.054 E25.6385
G1 X33.146 Y32.634 E25.77867
G1 X36.156 Y30.524 E25.91881
G1 X39.357 Y28.753 E26.05828
G1 X42.746 Y27.327 E26.19846
G1 X46.268 Y26.268 E26.33867
G1 X49.876 Y25.592 E26.47862
G1 X53.529 Y25.302 E26.61832
G1 X56.53 Y25.387 E26.73278
G0 F1620 X57.226 Y25.406
G0 F4320 X57.239 Y25.081
;TYPE:WALL-OUTER
G1 F2400 E26.75935
G1 F1800 X101.714 Y26.884 E28.45633
G1 X101.714 Y92.648 E30.96355
G1 X57.239 Y94.451 E32.66052
G1 X53.521 Y94.554 E32.80232
G1 X49.837 Y94.263 E32.94321
G1 X46.188 Y93.579 E33.08475
G1 X42.631 Y92.51 E33.22635
